svgs/thin/jedi.svg

<svg xmlns="http://www.w3.org/2000/svg" viewBox="0 0 576 512"><!--! Font Awesome Pro 6.0.0-alpha3 by @fontawesome - https://fontawesome.com License - https://fontawesome.com/license (Commercial License) --><path d="M445.3 20.45C441.3 17.57 436.6 16 431.6 16c-7.875 .125-15.37 4-19.87 10.62c-4.375 6.625-5.46 14.96-2.46 22.33c5.875 14.88 8.958 30.67 8.958 46.67c0 41.13-19.08 78.88-52.58 103.6c-5.75 4.375-9.458 11.08-9.833 18.33s2.667 14.29 8.042 19.17C387.6 257.9 401.1 288.1 401.1 320c0 26.66-19.77 104.9-105.1 109.8v-74.46l42.34 42.34C339.9 399.2 341.9 400 344 400s4.094-.7813 5.656-2.344c3.125-3.125 3.125-8.188 0-11.31L307.3 344H368c4.406 0 8-3.594 8-8s-3.594-8-8-8h-60.69l42.34-42.34c3.125-3.125 3.125-8.188 0-11.31s-8.188-3.125-11.31 0L296 316.7l-.0154-308.9C295.1 3.422 292.4 0 287.1 0S280 3.422 280 7.828L280 316.7L237.7 274.3c-3.125-3.125-8.188-3.125-11.31 0s-3.125 8.188 0 11.31L268.7 328H208c-4.406 0-8 3.594-8 8s3.594 8 8 8h60.69l-42.34 42.34c-3.125 3.125-3.125 8.188 0 11.31C227.9 399.2 229.9 400 232 400s4.094-.7813 5.656-2.344L280 355.3v74.46C194.7 424.9 174.9 346.7 174.9 320c0-31.88 13.44-62.13 37.19-83.25c5.375-4.875 8.375-11.88 8-19.12s-4-13.96-9.75-18.33c-33.5-24.75-52.62-62.54-52.62-103.7c0-16 3-31.75 8.875-46.63c3-7.375 2-15.71-2.375-22.33C159.7 20.04 152.2 16.17 144.3 16.04c-4.998 0-9.735 1.58-13.74 4.455C54.74 74.12 11.98 161.4 16.23 254C22.73 394.7 141.6 511.1 287.1 512c146.4-.0117 265.2-117.3 271.7-257.1C563.1 161.4 521.2 74.07 445.3 20.45zM288 496c-134.8-.0117-249.5-108.9-255.7-242.7c-.2676-5.848 .168-11.59 .2949-17.39l57.78 57.78C91.91 295.2 93.94 296 96 296s4.094-.7813 5.656-2.344c3.125-3.125 3.125-8.188 0-11.31L33.75 214.4c2.182-20.56 6.73-40.57 13.67-59.7l74.92 74.92C123.9 231.2 125.9 232 128 232s4.094-.7813 5.656-2.344c3.125-3.125 3.125-8.188 0-11.31L54.06 138.7c18.34-41.43 47.4-78.02 85.94-105.3C140.9 32.81 142.5 32 144.2 32c2.809 .043 5.385 1.395 6.777 3.441c1.537 2.328 1.877 5.145 .8457 7.68C145.1 59.91 141.8 77.58 141.8 95.63c0 46.28 21.54 88.74 58.93 116.4c2.037 1.547 3.33 3.965 3.459 6.469c.123 2.387-.8867 4.738-2.656 6.344C174.4 248.9 158.9 283.6 158.9 320c0 41.13 31.55 126.1 129.1 126.2C385.5 446.1 417.1 361.1 417.1 320c0-36.41-15.53-71.11-42.5-95.1c-1.885-1.707-2.895-4.059-2.771-6.445c.1289-2.504 1.422-4.922 3.279-6.336c37.57-27.75 59.11-70.21 59.11-116.5c0-18.05-3.363-35.71-10.05-52.65c-.9707-2.387-.6309-5.203 .7891-7.355C426.4 33.43 428.1 32.09 431.7 32c1.871 .0352 3.361 .8281 4.391 1.566c38.47 27.19 67.51 63.75 85.84 105.2l-79.61 79.61c-3.125 3.125-3.125 8.188 0 11.31C443.9 231.2 445.9 232 448 232s4.094-.7813 5.656-2.344l74.93-74.92c6.941 19.12 11.49 39.14 13.67 59.7l-67.91 67.91c-3.125 3.125-3.125 8.188 0 11.31C475.9 295.2 477.9 296 480 296s4.094-.7813 5.656-2.344l57.78-57.78c.127 5.797 .5625 11.54 .2949 17.39C537.5 387.1 422.8 495.1 288 496z"/></svg>

<svg xmlns="http://www.w3.org/2000/svg" viewBox="0 0 576 512"><!-- Font Awesome Pro 6.0.0-alpha2 by @fontawesome - https://fontawesome.com License - https://fontawesome.com/license (Commercial License) --><path d="M445.344 20.5C441.344 17.625 436.594 16 431.596 16C423.721 16.125 416.221 20 411.721 26.625C407.346 33.25 406.346 41.625 409.346 49C415.221 63.875 418.221 79.625 418.221 95.625C418.221 136.75 399.098 174.5 365.6 199.25C359.85 203.625 356.225 210.375 355.85 217.625S358.475 231.875 363.85 236.75C387.598 257.875 401.098 288.125 401.098 320C401.098 346.656 381.29 424.914 296 429.773V355.312L338.344 397.656C339.907 399.219 341.938 400 344 400S348.094 399.219 349.657 397.656C352.782 394.531 352.782 389.469 349.657 386.344L307.313 344H368C372.407 344 376 340.406 376 336S372.407 328 368 328H307.313L349.657 285.656C352.782 282.531 352.782 277.469 349.657 274.344S341.469 271.219 338.344 274.344L296 316.688V8C296 3.594 292.407 0 288 0S280 3.594 280 8V316.688L237.657 274.344C234.532 271.219 229.469 271.219 226.344 274.344S223.219 282.531 226.344 285.656L268.688 328H208C203.594 328 200 331.594 200 336S203.594 344 208 344H268.688L226.344 386.344C223.219 389.469 223.219 394.531 226.344 397.656C227.907 399.219 229.938 400 232 400S236.094 399.219 237.657 397.656L280 355.312V429.773C194.711 424.914 174.903 346.656 174.903 320C174.903 288.125 188.403 257.875 212.151 236.75C217.526 231.875 220.526 224.875 220.151 217.625S216.151 203.625 210.401 199.25C176.903 174.5 157.78 136.75 157.78 95.625C157.78 79.625 160.78 63.875 166.655 49C169.655 41.625 168.655 33.25 164.28 26.625C159.78 20 152.28 16.125 144.405 16C139.407 16 134.657 17.625 130.657 20.5C54.788 74.125 12.04 161.375 16.29 254C22.79 394.742 141.643 511.988 288 512C434.358 511.988 553.211 394.742 559.711 254C563.961 161.375 521.213 74.125 445.344 20.5ZM288.002 496C153.172 495.988 38.454 387.098 32.272 253.266C32.004 247.418 32.44 241.672 32.567 235.875L90.344 293.656C91.907 295.219 93.938 296 96 296S100.094 295.219 101.657 293.656C104.782 290.531 104.782 285.469 101.657 282.344L33.749 214.438C35.93 193.879 40.479 173.867 47.422 154.734L122.344 229.656C123.907 231.219 125.938 232 128 232S132.094 231.219 133.657 229.656C136.782 226.531 136.782 221.469 133.657 218.344L54.057 138.742C72.397 97.313 101.461 60.727 139.995 33.492C140.942 32.812 142.475 32 144.151 32C146.959 32.043 149.536 33.395 150.928 35.441C152.465 37.77 152.805 40.586 151.774 43.121C145.143 59.91 141.78 77.578 141.78 95.625C141.78 141.902 163.325 184.363 200.713 211.984C202.75 213.531 204.043 215.949 204.172 218.453C204.295 220.84 203.286 223.191 201.516 224.797C174.434 248.887 158.903 283.586 158.903 320C158.903 361.129 190.454 446.098 288.024 446.238C385.547 446.098 417.098 361.129 417.098 320C417.098 283.586 401.567 248.887 374.6 224.898C372.715 223.191 371.706 220.84 371.829 218.453C371.958 215.949 373.25 213.531 375.108 212.117C412.676 184.363 434.221 141.902 434.221 95.625C434.221 77.578 430.858 59.91 424.166 42.973C423.196 40.586 423.536 37.77 424.956 35.617C426.442 33.43 428.961 32.086 431.719 32C433.59 32.035 435.081 32.828 436.11 33.566C474.583 60.758 503.622 97.32 521.95 138.738L442.344 218.344C439.219 221.469 439.219 226.531 442.344 229.656C443.907 231.219 445.938 232 448 232S452.094 231.219 453.657 229.656L528.583 154.734C535.524 173.859 540.073 193.875 542.254 214.434L474.344 282.344C471.219 285.469 471.219 290.531 474.344 293.656C475.907 295.219 477.938 296 480 296S484.094 295.219 485.657 293.656L543.434 235.875C543.561 241.672 543.997 247.414 543.729 253.262C537.547 387.098 422.829 495.988 288.002 496Z"/></svg>
